X:1
T:Take the Home-Path
T:Samuel W. Beazley
T:Take the Home-Path
T:Public Domain
T:Public Domain
C:Samuel W. Beazley
Z:Public Domain
%%score ( 1 2 ) ( 3 4 )
L:1/8
M:4/4
K:C
V:1 treble 
V:2 treble 
V:3 bass 
V:4 bass 
V:1
 [CE][DF] | [EG]2 [Ec]2 [Ec]2 [Ge][^Gd] | [Ac]2 [FA]2 [Ac]2 [GB][FA] | [EG]2 [Ec]2 [EG]2 [CE]2 | %4
w: 1.~You have|wan- dered far on the|des- ert lone, And you|face an aw- ful|
w: 2.~You have|been al- lured from the|peace- ful way By your|soul’s re- lent- less|
w: 3.~While the|chance is yours turn your|back to sin, Seek- ing|par- don, hum- bly|
 D6 [CE][DF] | [EG]2 [Ec]2 [Ec]2 [Ge][^Gd] | [Ac]2 [FA]2 [Ac]2 [^DB][DA] | [EG]2 G2 [^FA]2 [=FB]2 | %8
w: fate, For a|is near and the night|comes on— Take the home-|path ere too late.|
w: foe; Let the|ior true take your hand|to- day, For He knows|the way to go.|
w: bow; You’ve a|to save and a crown|to win, And the time|to start is now.|
 [Ec]6 ||"^Refrain" [Gc][GA] | [GB]2 [GB]4 [Gd][GB] | [Gc]2 [Gc]4 [^Ge][Gd] | %12
w: the|home- path,|take the home- path,|Night is com- ing,|
w: ||||
w: ||||
 [Ac] [EA]3 [^Fd]2 [Fe]2 | (G2 ^FF =F2) [FA][GB] | [Gc]2 [_Bc]4 [Bd][Bc] | [Ac]2 [Ac]4 [Fc][^Fd] | %16
w: do not wait; Take|the * * * home- path,|the home- path, Take|the home- path ere|
w: ||||
w: ||||
 [Ge]3 [Gc] [^FB]2 [=Fd]2 | (E2 F^D E2) |] %18
w: too late. * *||
w: ||
w: ||
V:2
 x2 | x8 | x8 | x8 | D6 x2 | x8 | x8 | x2 G2 x4 | x6 || x2 | x8 | x8 | x8 | d6 x2 | x8 | x8 | x8 | %17
w: ||||storm|||Take||||||take||||
w: ||||Sav-|||||||||||||
w: ||||soul|||||||||||||
 c6 |] %18
w: |
w: |
w: |
V:3
 [C,G,][C,G,] | [C,C]2 [C,G,]2 [C,G,]2 [C,C][E,C] | [F,C]2 [F,C]2 [F,C]2 [F,C][F,C] | %3
w: ~ ~|~ ~ ~ ~ ~|~ ~ ~ ~ ~|
 [C,C]2 [C,G,]2 [C,C]2 [C,G,]2 | (G,,A,,B,,C, F,E,)[E,G,][D,G,] | %5
w: ~ ~ ~ ~|~ * * * * * ~ ~|
 [C,G,]2 [C,G,]2 [C,G,]2 [C,C][E,C] | [F,C]2 [F,C]2 [F,C]2 [^F,C][F,C] | %7
w: ~ ~ ~ ~ ~|~ ~ ~ ~ ~|
 [G,C]2 [E,C]2 [D,C]2 [G,D]2 | [C,C]6 || [C,E][C,E] | (D,G,,)(B,,D,) G,2 G,,G,, | %11
w: ~ ~ ~ ~|~|~ ~|~ * ~ * ~ ~ ~|
 (C,G,,)(C,E,) G,2 [E,E][E,E] | [A,E] [A,C]3 [D,C]2 [D,C]2 | %13
w: ~ * ~ * ~ ~ ~|~ ~ do not|
 [G,B,]2 [A,C][A,C] [G,B,]2 [G,F][G,F] | (C,G,,)(C,E, G,2) C,C, | (F,C,)(F,A, C2) [A,C][_A,C] | %16
w: wait * * * * *|||
 [G,C]3 [G,E] [A,D]2 [G,B,]2 | (C2 A,_A, G,2) |] %18
w: ||
V:4
 x2 | x8 | x8 | x8 | G,6 x2 | x8 | x8 | x8 | x6 || x2 | F2 x6 | E6 x2 | x8 | x8 | E2 E6- | E6 x2 | %16
w: ||||~||||||~|~|||||
 x8 | C,6 |] %18
w: ||

